packages/ui-solid/icons/discussion_28.svg

<svg width="28" height="28" viewBox="0 0 28 28" fill="none" xmlns="http://www.w3.org/2000/svg">
<path fill-rule="evenodd" clip-rule="evenodd" d="M14 4.89998C8.88267 4.89998 4.9 8.61332 4.9 13C4.9 14.9554 5.67902 16.759 6.99816 18.172C7.3145 18.5109 7.54805 18.994 7.51843 19.5486C7.47278 20.4035 7.29593 21.6931 6.831 22.8502C8.28737 22.4712 9.66673 21.7385 10.4945 21.1953C10.9363 20.9054 11.4757 20.7988 11.9969 20.9031C12.6405 21.0318 13.3108 21.1 14 21.1C19.1173 21.1 23.1 17.3866 23.1 13C23.1 8.61332 19.1173 4.89998 14 4.89998ZM3.1 13C3.1 7.44551 8.07164 3.09998 14 3.09998C19.9284 3.09998 24.9 7.44551 24.9 13C24.9 18.5544 19.9284 22.9 14 22.9C13.192 22.9 12.4035 22.8201 11.6438 22.6681C11.5894 22.6572 11.5311 22.668 11.4821 22.7002C10.4119 23.4025 8.47798 24.4236 6.44267 24.7751C5.74342 24.8958 5.2291 24.4752 4.99863 24.0479C4.7765 23.6362 4.72278 23.0794 4.97638 22.5855C5.46508 21.6337 5.6729 20.3427 5.7207 19.458C5.72038 19.457 5.71989 19.4557 5.71916 19.4539C5.71496 19.4435 5.70436 19.4239 5.68242 19.4003C4.08042 17.6844 3.1 15.4512 3.1 13ZM8.88947 11.4285C8.88947 10.9315 9.29242 10.5285 9.78947 10.5285H18.7368C19.2339 10.5285 19.6368 10.9315 19.6368 11.4285C19.6368 11.9256 19.2339 12.3285 18.7368 12.3285H9.78947C9.29242 12.3285 8.88947 11.9256 8.88947 11.4285ZM8.88947 15.4285C8.88947 14.9315 9.29242 14.5285 9.78947 14.5285H16.6316C17.1286 14.5285 17.5316 14.9315 17.5316 15.4285C17.5316 15.9256 17.1286 16.3285 16.6316 16.3285H9.78947C9.29242 16.3285 8.88947 15.9256 8.88947 15.4285Z" fill="#007AFF"/>
</svg>

<svg xmlns="http://www.w3.org/2000/svg" width="28" height="28" fill="none"><path fill="currentColor" fill-rule="evenodd" d="M14 4.9c-5.117 0-9.1 3.713-9.1 8.1 0 1.955.779 3.759 2.098 5.172.316.339.55.822.52 1.377-.045.855-.222 2.144-.687 3.301 1.456-.379 2.836-1.112 3.664-1.655.441-.29.98-.396 1.502-.292.643.129 1.314.197 2.003.197 5.117 0 9.1-3.713 9.1-8.1S19.117 4.9 14 4.9M3.1 13c0-5.554 4.972-9.9 10.9-9.9S24.9 7.446 24.9 13s-4.972 9.9-10.9 9.9c-.808 0-1.597-.08-2.356-.232a.22.22 0 0 0-.162.032c-1.07.703-3.004 1.724-5.04 2.075-.699.12-1.213-.3-1.443-.727a1.58 1.58 0 0 1-.023-1.462c.49-.952.697-2.243.745-3.128l-.002-.004a.2.2 0 0 0-.037-.054C4.08 17.684 3.1 15.451 3.1 13m5.79-1.572a.9.9 0 0 1 .9-.9h8.947a.9.9 0 0 1 0 1.8H9.789a.9.9 0 0 1-.9-.9m0 4a.9.9 0 0 1 .9-.9h6.842a.9.9 0 0 1 0 1.8H9.789a.9.9 0 0 1-.9-.9" clip-rule="evenodd"/></svg>
